!!!OTL: 769. Die Heimath der Seele.
!!!ARE: Europa, Mitteleuropa, Deutschland
!!!SCT: B0769
!!!TXL: @@DE
!!!YEM: Copyright 1995, estate of Helmut Schaffrath.
**kern	**text
*ICvox	*
*Ivox	*
*clefG2	*
*M4/4	*
*met(c)	*
*k[b-e-a-]	*
*E-:	*
!LO:TX:a:t=Ruhig.	!
{4b-	Wo
=1	=1
2b-	fin-
4g	-det
4cc	die
=2	=2
2b-	See-
4g	-le
4b-	die
=3	=3
2a-	Hei-
4f	-math,
4a-	die
=4	=4
2g	Ruh'?
4r}	.
{4g	Wer
=5	=5
2g	deckt
4a-	ſie
4cc	mit
=6	=6
2b-	ſchütʒenden
4g	.
4b-	.
=7	=7
2a-	Fit-
4f	-ti-
4a-	-chen
=8	=8
2g	ʒu?
4r}	.
{4b-	Ach,
=9	=9
2ee-	bie-
4dd	-tet
4cc	die
=10	=10
2b-	Welt
4g	kei-
4b-	-ne
=11	=11
(4b-	Frei-
4cc)	.
4a-	-ſtatt
4b-	uns
=12	=12
2g	an,
4r}	.
{4b-	wo
=13	=13
2ee-	Sün-
4dd	-de
4cc	nicht
=14	=14
2b-	herrſchen,
4g	.
4b-	nicht
=15	=15
(4b-	an-
4cc)	.
4a-	-fech-
4b-	-ten
=16	=16
2g	kann?
2r}	.
=17||	=17||
{2b-	Nein,
2g	nein,
=18	=18
2a-	nein,
2f	nein,
=19	=19
2e-	hier
4a-	iſt
4cc	ſie
=20	=20
2b-	nicht
4r}	.
{4b-	die
=21	=21
2ee-	Hei-
4dd	-math
4cc	der
=22	=22
2b-	See-
4g	-le
4b-	iſt
=23	=23
(<4b-	dro-
4a-)	.
4g	-ben
4f	im
=24	=24
2e-	Licht.
4r}	.
==	==
!!!AGN: religioes
!!!GTL: Religioese Lieder
!!!ONB: ESAC (Essen Associative Code) Database: BOEHME
!!!AMT: simple quadruple
!!!AIN: vox
!!!EED: Helmut Schaffrath
!!!EEV: 1.0
!!!RDF**kern: < = below
!!Variante der englischen Volksmelodie "Home, sweet home".
!!@@COMMENT:"Text von Pfr. Guſtad Knak in Berlin, um 1850. Nach andern Angaben von Jürgens.
!!Das Original dieſer Mel. ſ. unter Kein Becher voller Wonne" (Nr. 729.)"
!!@@END:
!!!Text: G. Knak
!!!URL-scan: https://archive.org/details/BoehmeVtLieder1895/page/n613/mode/2up
!!!ENC: Anna Maria Matuszewska
!!!EEV: 2024/19/07
*-	*-
